cssgg/shortcut.svg

<svg
  width="24"
  height="24"
  viewBox="0 0 24 24"
  fill="none"
  xmlns="http://www.w3.org/2000/svg"
>
  <path
    d="M16.1925 7.70711C15.8019 7.31658 15.1688 7.31658 14.7782 7.70711L7.70718 14.7782C7.31665 15.1687 7.31665 15.8019 7.70718 16.1924C8.0977 16.5829 8.73087 16.5829 9.12139 16.1924L16.1925 9.12132C16.583 8.7308 16.583 8.09763 16.1925 7.70711Z"
    fill="currentColor"
  />
  <path
    fill-rule="evenodd"
    clip-rule="evenodd"
    d="M3 6C3 4.34315 4.34315 3 6 3H18C19.6569 3 21 4.34315 21 6V18C21 19.6569 19.6569 21 18 21H6C4.34315 21 3 19.6569 3 18V6ZM6 5H18C18.5523 5 19 5.44772 19 6V18C19 18.5523 18.5523 19 18 19H6C5.44772 19 5 18.5523 5 18V6C5 5.44772 5.44772 5 6 5Z"
    fill="currentColor"
  />
</svg>

<svg viewBox="0 0 24 24" xmlns="http://www.w3.org/2000/svg"><g><path d="M16.19 7.7c-.4-.4-1.03-.4-1.42 0l-7.08 7.07c-.4.39-.4 1.02 0 1.41 .39.39 1.02.39 1.41 0l7.07-7.08c.39-.4.39-1.03 0-1.42Z"/><path fill-rule="evenodd" d="M3 6c0-1.66 1.34-3 3-3h12c1.65 0 3 1.34 3 3v12c0 1.65-1.35 3-3 3H6c-1.66 0-3-1.35-3-3V6Zm3-1h12c.55 0 1 .44 1 1v12c0 .55-.45 1-1 1H6c-.56 0-1-.45-1-1V6c0-.56.44-1 1-1Z"/></g></svg>
